X: 1
T: Baby Got the Rickets
D: Vol Stevens, 1928 Victor 21356-B 45 record
%D:1928
R: blues
S: Fiddle Hell Online 2022-4-10 handout for Matt Flinner blues mandolin workshop
Z: 2022 John Chambers <jc:trillian.mit.edu>
M: 4/4
L: 1/8
K: G
B2 ||\
"G"c2d2  vBuG3 | BBc^c dd_B=B | G6 [g2B2D2G,2] | "G7"[=fADG,]f3-fu^dveud |
"C"veuc3 vGuE3 | veu=fveud- duc2u[B-G] | "G"B4- BdudvBuG | D4- Dudvdud |
"D7"d2d2 vcud3 | DEG_B =Bd_B=B | "G"G2_B2 (3(v=BA)uG vEuD | vG6 |]
